X:1
T: 40 years together
N:Copyright (c) 2007 Bruce Shawyer
C:Bruce Shawyer
R:Jig
Q:180
K:G
M:6/8
L:1/16
D2|G4G2 G2A2B2|d2c2B2 A4D2|F4F2 F2G2A2|c2B2A2 B4D2|G4G2 G2A2B2|d2c2B2 A4D2|E2F2G2 F2G2A2|G6G4D2|
G4G2 G2A2B2|d2c2B2 A4D2|F4F2 F2G2A2|c2B2A2 B4D2|G4G2 G2A2B2|d2c2B2 A4D2|E2F2G2 F2G2A2|G6 G4d2|
g4g2 g2d2B2|g4g2 g2e2c2|d4d2 d2B2G2|A4A2 A4d2|g2d2B2 g2d2B2|g2e2c2 g6|d2B2G2 c2A2F2|G6 G4d2|
g4g2 g2d2B2|g4g2 g2e2c2|d4d2 d2B2G2|A4A2 A4d2|g2d2B2 g2d2B2|g2e2c2 g6|d2B2G2 c2A2F2|G6 G4||
